assets/Speaker high volume/Flat/speaker_high_volume_flat.svg

<svg width="32" height="32" viewBox="0 0 32 32" fill="none" xmlns="http://www.w3.org/2000/svg">
<path d="M23.5063 7.97456C23.195 7.79455 23 7.46518 23 7.1058C23 6.3333 23.8369 5.85705 24.5056 6.24455C27.79 8.14705 30 11.6989 30 15.7683C30 19.8371 27.7906 23.3896 24.505 25.2921C23.8363 25.6796 22.9994 25.2027 22.9994 24.4302C22.9994 24.0714 23.1931 23.7427 23.5038 23.5627C24.1756 23.1739 24.8006 22.6952 25.3638 22.1321C27.0863 20.4096 28.0244 18.1121 27.9994 15.6721C27.9763 13.4202 27.1031 11.2471 25.56 9.60643C24.9475 8.95518 24.2556 8.40893 23.5063 7.97456ZM23.6725 10.6276C23.8237 10.7676 23.9694 10.9151 24.11 11.0695C25.2256 12.2976 25.8681 13.8932 25.9175 15.5514C25.9762 17.5014 25.2437 19.3445 23.8706 20.7176C23.8069 20.782 23.7419 20.8445 23.6756 20.9057C23.0369 21.4976 22 21.047 22 20.1764C22 19.8964 22.1119 19.6257 22.3175 19.4357C23.3037 18.5226 23.9212 17.2176 23.9212 15.7682C23.9212 14.3189 23.3031 13.0139 22.3175 12.1007C22.1181 11.9164 22 11.6595 22 11.3876V11.3601C22 10.4914 23.035 10.0376 23.6725 10.6276Z" fill="#83CBFF"/>
<path d="M8.01223 23H3.80282C2.80707 23 2 22.153 2 21.1079V10.8921C2 9.84705 2.80707 9 3.80282 9H8.01223L19 13C20.6569 13 22 14.3431 22 16C22 17.6569 20.6569 19 19 19L8.01223 23Z" fill="#B4ACBC"/>
<path d="M16.6106 26.8308L7.99756 23.001L7.99758 9.01929L16.0474 5.23141C17.1704 4.70337 19.0356 5.25508 19.0356 6.49639V25.3044C19.0356 26.551 17.7343 27.3704 16.6106 26.8308Z" fill="#CDC4D6"/>
</svg>

<svg xmlns="http://www.w3.org/2000/svg" width="32" height="32" fill="none"><path fill="#83CBFF" d="M23.506 7.975a1.005 1.005 0 0 1-.506-.87 1 1 0 0 1 1.506-.86A10.994 10.994 0 0 1 30 15.768c0 4.07-2.21 7.622-5.495 9.524a1 1 0 0 1-1.506-.862c0-.359.194-.687.505-.867a9.019 9.019 0 0 0 1.86-1.43 8.944 8.944 0 0 0 2.635-6.46 9.004 9.004 0 0 0-4.493-7.698Zm.166 2.653a6.987 6.987 0 0 1 2.245 4.924 6.958 6.958 0 0 1-2.241 5.354c-.64.592-1.676.141-1.676-.73 0-.28.112-.55.317-.74a4.983 4.983 0 0 0 1.604-3.668c0-1.45-.618-2.754-1.604-3.667a.973.973 0 0 1-.317-.713v-.028c0-.869 1.035-1.322 1.672-.732Z"/><path fill="#B4ACBC" d="M8.012 23h-4.21C2.808 23 2 22.153 2 21.108V10.892C2 9.847 2.807 9 3.803 9h4.21L19 13a3 3 0 1 1 0 6L8.012 23Z"/><path fill="#CDC4D6" d="m16.61 26.83-8.612-3.829V9.019l8.05-3.788c1.122-.528 2.988.024 2.988 1.265v18.808a1.693 1.693 0 0 1-2.425 1.527Z"/></svg>
